X: 31471
T: Paddy Taylor's
R: reel
M: 4/4
K: Dmixolydian
|:FEDF A2 AF|GEcE dEcE|FEDF A3F|GEcE ED D2:|
Add^c d2ed|(3^cBA eA fAeA|Add^c d2ed|^cAGE ED D2|
Add^c d2ed|^cdef g2 fg|afge d2 ^cA|(3B^cd AG FD D2|
F3 G A2 dG|GGdG GGdG|F3 G AddB|AcGE ED D2|
F3 G A2 dG|GGdG eGdG|F3 G AddB|AcGE ED D2|

